X: 1592
T: Banks of the Ilen
R:hornpipe
N:"Collected by F. O'Neill"
B:O'Neill's 1592
Z:Transcribed by Michael Hogan
M:C|
L:1/8
K:D
(AG) | FDFA d2 (fe) | d2 (fd) ecAG | FDFA d2 (fd) | ecAF GBAG |
FDFA d2 (fe) | d2 (fd) ecAG | FDFA d2 (fd) | ecAF G2 :|
|: (de) | f2 (fd) g2 (ge) | abag fdde |  f2 (fd) g2 (ge) | abaf g2 (fg)|
abaf gage | fgfd ecAG | FDFA defd | ecAF G2 :||


